X:1
T: Bruce's Reel
C:Bruce Shawyer
R:Reel
Q:232
K:G
M:4/4
L:1/16
|:"G"G4D4 B,2C2D4|"G"G4d2c2 "D7"B4A4|"G"G4D4 B,2C2D4|"G"G2A2 "D7"B2c2 A8|
"G"G4D4 B,2C2D4|"G"G4d2c2 "D7"B4A4|"G"G2A2 B2c2 d4g4|"D7"B4A4 "G"G8:|
|:"G"B4d4 "C"e2d2 c2B2|"Em"c4B4 "D7"A8|"G"B4d4 "C"e2d2 c2B2|"D"c2B2 A2G2 "D7"F4D4|
"G"B4d4 "C"e2d2 c2B2|"Em"c4B4 "D7"A8|"G"G2A2 B2c2 d4g4|"D7"B4A4 "G"G8:|
